X:1
T:Title
%%score 1 [ ( 2 3 ) ( 4 5 ) ( 6 7 8 ) ]
L:1/8
Q:1/4=84
M:3/4
K:A
V:1 treble nm="Alto Solo"
V:2 treble nm="Alto"
V:3 treble 
V:4 treble-8 nm="Tenor"
V:5 treble-8 
V:6 bass nm="Bass"
V:7 bass 
V:8 bass 
V:1
"^Modéré" z6 | z6 | z6 | z6 |!p! z2 z (F GA | BG GA FG | c2) z (B AG | GA F4) | z2 F2 G2 | %9
w: ||||Quant j'ai ou-|y le ta- bou- rin Son-|­ner, pour s'en al-|ler au may,|En mon|
 G2 AB GA | B2 (cA BG | A2 F2 G2 | E2) z2 z2 | z2 E2 G2 | E6- | E2 EE GG |!>(! cc BB AA | %17
w: lit n'en ay fait af-|fray Ne le- vé mon|chief du cois-|­sin;|En di-|sant:|_ il est trop ma-|tin Ung peu je me ren-|
 GG!>)! F4 |!p! z6 | z6 | z2 z F GA | BG GA FG | c3 B AG | GA F4- | F4 z2 | %25
w: dor- mi- ray:|||Quant j'ai ou-|y le ta- bou- rin Son-|­ner, pour s'en al-|ler au may,|_|
[Q:1/4=92]"^Un peu animé" z6 | z2 A2 A2 | e6- | e2 EE FF | %29
w: |Jeu- nes|gens|_ par- tent leur bu-|
[Q:1/4=92]"^En retenant     _          _          _          _          _          _          _          _" D2 z2 z2 | %30
w: tin;|
 z2 z2 D2 ||[K:C][Q:1/4=84]"^Très modéré""^doux et expressif" EE E4- | E2 F2 AG | E2 F2 A2- | %34
w: De|non cha- loir|_ m'ac- coin- te-|ray A lui|
 AA FF GE | D4 z2 | z2 A2 c2 | A4 AG | FE F4 || %39
w: _ je n'a- bu- ti- ne-|ray|Trou- vé|l'ay plus prou-|chain voi- sin;|
[K:A][Q:1/4=84]"^Tempo I" z2 F2"^(un peu retenu)" GA | BG GA FG | c3 B AG | GA F4 | z2 F2 G2 | %44
w: Quant j'ai ou-|y le ta- bou- rin Son-|ner pour s'en al-|ler zu may|En mon|
!p! G2 FA FG |!p! G2 F2 F2 |[Q:1/4=40]"^Plus retenu" FF F2 FF | F6- | F2 z2 z2 | z6 | %50
w: lit n'en ay fait af-|fray Ne le-|vé mon chief du cois-|sin.|_||
 !fermata!z6 |] %51
w: |
V:2
 z6 |!pp! z2 z"^léger" .C!>(! .^D (F/D/)!>)! | z6 |!pp! z2 z!<(! (C .=D)!<)!!>(!.D/.D/!>)! | %4
w: |La la la _||La _ la la|
w: ||||
!pp! z2 z!<(! (C .D)!<)!!>(!.D/.D/!>)! | z2 z!<(! (C .D)!<)!!>(!.D/.D/!>)! | z6 | %7
w: La _ la la|La _ la la||
w: |||
!pp! z!<(! (C D)!<)!!>(!.D/.D/!>)! !tenuto!E2 |!pp! z!<(! (C D)!<)!!>(!.D/.D/!>)! !tenuto!E2 | %9
w: la _ la la la|la _ la la la|
w: ||
!pp! z!<(! (C D)!<)!!>(!.D/.D/!>)! !tenuto!E2 |!pp! z!<(! (C D)!<)!!>(!.D/.D/!>)! !tenuto!E2 | %11
w: la _ la la la|la _ la la la|
w: ||
!pp! z!<(! C C.C/.C/!<)! !tenuto!E2 | %12
w: la la la la la|
w: |
!pp!"^Div." .[CE].[CE]/.[CE]/ !tenuto![CE]2 .[CE].[CE]/.[CE]/ | %13
w: la la la la la la la|
w: |
 !tenuto![CE]2 .[CE].[CE]/.[CE]/ !tenuto![CE]2 | %14
w: la la la la la|
w: |
 .[CE].[CE]/.[CE]/ !tenuto![CE]2 .[CE].[CE]/.[CE]/ | %15
w: la la la la la la la|
w: |
 !tenuto![CE]2 .[CE].[CE]/.[CE]/ !tenuto![CE]2 | %16
w: la la la la la|
w: |
!>(! .[CE].[CE]/.[CE]/ !tenuto![CE]2 .[CE].[CE]/.[CE]/ | %17
w: la la la la la la la|
w: |
!p! .[CE]2!>)!"^Unis."!>(! !^!!tenuto!C4-!>)! |"^più" C6 |!pp!!>(! z2 z .C!>(! .^D (F/D/)!>)!!>)! | %20
w: la a|_|la la la _|
w: |||
 z6 |!p! (D2 E2 F2 | G2 A2 F2) |!>(! (E2!>)! D4) |!>(! (E2!>)! D2-)!<(! D.F!<)! | %25
w: |a _ _|_ _ _|a _|a _ _ la|
w: |||||
!mf! !tenuto!A>.A (=G/F/).E/.D/ .E.F |!<(! (=G>A) (G>A) (G>!<)!B) | %27
w: la la la _ la la la la|la _ la _ la _|
w: ||
!f! !tenuto!A>.A (=G/F/).E/.D/ .E.F | (D4"^dim.   -       -       -       -       -       -" E2 | %29
w: la la la _ la la la la||
w: |la _|
!p! D6-) |!>(! D6!>)! ||[K:C] z6 | z6 | z6 | z6 | %35
w: ||||||
w: _||||||
!pp!"^les 1ers seulement" (DE DE"^(à bouche fermée)" DE | DE DE DE) | (DE DE DE | DE DE) z2 || %39
w: ||||
w: ||||
[K:A] z6"^(voix naturelle)" |"^Unis."!p! z2 !tenuto!C.C/.C/ !tenuto!C2 | %41
w: |la la la la|
w: ||
!p! z2 (!tenuto!D!<(!.D/.D/ !tenuto!E.E/.E/)!<)! |!p!!>(! !tenuto!F>.F .E.D !tenuto!=C.C/.C/!>)! | %43
w: la la la la la la|la la la la la la la|
w: ||
!p!!>(! !tenuto!F>.F .E.D !tenuto!=C.C/.C/!>)! |!p! !tenuto!F>.F .E.D !tenuto!=C.C/.C/ | %45
w: la la la la la la la|la la la la la la la|
w: ||
!p! !tenuto!F>.F .E.D !tenuto!=C.C/.C/ |!p!"^più" (=C4 D2- |!pp! D2!>(! E2 D2 | E2 D2!>)! E2) | %49
w: la la la la la la la|a _|_ _ _||
w: ||||
!ppp!"^(bouche fermée)" C6- | !fermata!C2 z2 z2 |] %51
w: a|_|
w: ||
V:3
 x6 | x6 | x6 | x6 | x6 | x6 | x6 | x6 | x6 | x6 | x6 | x6 | x6 | x6 | x6 | x6 | x6 | x6 | x6 | %19
w: |||||||||||||||||||
 x6 | x6 | x6 | x6 | x6 | x6 | x6 | x6 | x6 | D2 (!tenuto!C.B,/.B,/) (!tenuto!^A,.C/.A,/) | D6- | %30
w: |||||||||la la la la la la la|la|
 D6 ||[K:C] x6 | x6 | x6 | x6 | x6 | x6 | x6 | x6 ||[K:A] x6 | x6 | x6 | x6 | x6 | x6 | x6 | x6 | %47
w: |||||||||||||||||
 x6 | x6 | x6 | x6 |] %51
w: ||||
V:4
!pp!"^léger" z6 |!pp! c>c cc cB | c2 z2 z2 | c>c c (c2!>(! B)!>)! | c>c c (c2 B) | c>c c (c2 B) | %6
w: ||||||
w: |La la la la la la|la|La la la la _|La la la la _|La la la la _|
 c>c c c2 c | cc/c/ c.c/.c/ !tenuto!B2 | cc/c/ cc/c/ B2 | .c.c/.c/ .c.c/.c/ !tenuto!B2 | %10
w: ||||
w: _ _ _ _ _|la la la la la la la|la la la la la la la|la la la la la la la|
!pp! .c.c/.c/ .c.c/.c/ !tenuto!B2 |!<(! .[Fc].[Fc]/.[Fc]/ .[Fd].[Fd]/.[Fd]/!<)! !tenuto![EB]2 | %12
w: |la la la la la la la|
w: la la la la la la la||
!pp!"^Unis." !tenuto!E2 .E.E/.E/ !tenuto!E2 | .E.E/.E/ !tenuto!E2 .E.E/.E/ | %14
w: lon lon lon lon lon|lon lon lon lon lon lon lon|
w: ||
 !tenuto!E2 .E.E/.E/ !tenuto!E2 | .E.E/.E/ !tenuto!E2 .E.E/.E/ | !tenuto!E2 .E.E/.E/ !tenuto!E2 | %17
w: lon lon lon lon lon|lon lon lon lon lon lon lon|lon lon lon lon lon|
w: |||
!p! .E.F/.G/!>(! !^!!tenuto!^A4-!>)! |"^più"!p! A6 |!pp!"^Div."!>(! c>c c2 cB!>)! | c>c c2 z2 | %21
w: lon lon lon a|_|||
w: ||la la la la la|la la la|
!p! (d2 c2 B2 | d6) | !tenuto!c2- c.B/.B/ .c.B | !tenuto!c2- c.B/.B/!<(! (.B.d)!<)! | %25
w: ||||
w: a _ _|_|la _ la la la la|la _ la la la la|
!mf! !tenuto![ce]>.[ce] ([Bd]/[Ac]/).[=GB]/.[FA]/ .[GB].[Ac] | %26
w: la la la _ la la la la|
w: |
!<(! ([Bd]/[Ac]/[=GB]/[ce]/) ([Bd]/[ce]/[Bd]- [Bd]/[Ac]/[Bd]/!<)![df]/) | %27
w: la _ _ _ la _ la _ _ _ _|
w: |
!f! !tenuto![ce]>.[ce] ([Bd]/[Ac]/).[=GB]/.[FA]/ .[GB].[Ac] | %28
w: la la la _ la la la la|
w: |
 (!tenuto!c"^dim.   -       -       -       -       -       -".B/.B/) (!tenuto!c.B/.B/) (!tenuto!^A.c/.A/) | %29
w: |
w: la la la la la la la la la|
!p! (!tenuto!c.B/.B/) (!tenuto!c.B/.B/) (^A2- |"^molto dim." A4 B^A) || %31
w: ||
w: la la la la la la la|_ _ _|
[K:C]!pp! ([FA]"^(à bouche fermée)"[GB][FA][GB][FA][GB] | [FA][GB][FA][GB][FA][GB]) | %33
w: ||
w: ||
 ([FA][GB][FA][GB][FA][GB] | [FA][GB][FA][GB][FA][GB]) | ([FA][G_B][FA][GB][FA][GB] | %36
w: |||
w: |||
 [FA][G_B][FA][GB][FA][GB]) | ([FA][G=B][FA][GB][FA][GB] | [FA][GB][FA][GB][FA][GB] || %39
w: |||
w: |||
[K:A]!p! [G^B][Ac]- [Ac]4)"^(voix naturelle)" |"^Unis."!p! z6 |!p! z6 | %42
w: |||
w: |||
!p!!>(! !tenuto!=c3 .c !tenuto!d.d/!>)!.d/ |!p!!>(! !tenuto!=c3 .c !tenuto!d.d/!>)!.d/ | %44
w: ||
w: la la la la la|la la la la la|
!p!!>(! !tenuto!=c3 .c !tenuto!d.d/.d/!>)! |!p!!>(! !tenuto!=c3 .c !tenuto!d.d/.d/!>)! | %46
w: ||
w: la la la la la|la la la la la|
!p!"^più" (=c4 A2- |!pp!!>(! A2 B2 A2 | B2 A2!>)! B2) |!ppp!"^(bouche fermée)" c6- | %50
w: |||a|
w: a _|_ _ _||a|
 !fermata!c2 z2 z2 |] %51
w: _|
w: _|
V:5
 !tenuto!F2- F.F/.F/ .F.F | !tenuto!F2- F.F/.F/ .F.F | !tenuto!F2- F.F/.F/ .F.F | %3
w: La _ la la la la|la _ la la la la|la _ la la la la|
w: |||
 F2- F.F/.F/ .F.F | F2- F.F/.F/ .F.F | F2- F.F/.F/ .F.F | !tenuto!F2- F.F/.F/ .F.F | %7
w: la * la la la la|la _ la la la la|la _ la la la la|la _ la la la la|
w: |||la la la * * la|
 !tenuto!F2- F.F/.F/ !tenuto!F2 | !tenuto!F2- FF/F/ F2 | !tenuto!F2- F.F/.F/ !tenuto!F2 | %10
w: la _ la la la|la _ la la la|la _ la la la|
w: |||
 !tenuto!F2- F.F/.F/ !tenuto!F2 | x6 | x6 | x6 | x6 | x6 | x6 | x6 | x6 | F2- FF/F/ FF | %20
w: la _ la la la|||||||||la _ la la la la|
w: ||||||||||
 F2- FF/F/ FF | (!tenuto!F.F/.F/) (!tenuto!F.F/.F/) (!tenuto!F.F/.F/) | %22
w: la _ la la la la|la la la la la la la la la|
w: ||
 (!tenuto!F.F/.F/) (!tenuto!F.F/.F/) (!tenuto!F.F/.F/) | (.F.F/.F/ F4) | (.F.F/.F/ F2-) F.B | x6 | %26
w: la la la la la la la la la|la la la la|la la la la _ la||
w: ||||
 x6 | x6 | (=G4 F2) | =G4- GF/F/ | =GF/F/ GF/F/ GF ||[K:C] x6 | x6 | x6 | x6 | x6 | x6 | x6 | x6 || %39
w: ||la _|la _ la la|la la la la la la la *|||||||||
w: |||||||||||||
[K:A] x6 | z2 !tenuto!C.C/.C/ !tenuto!C2 | z2 (!tenuto!D!<(!.D/.D/ !tenuto!E.E/.E/)!<)! | %42
w: |la la la la|la la la la la la|
w: |||
 !tenuto!F>.F .F.F (=c/B/).A/.G/ | !tenuto!F>.F .F.F (=c/B/).A/.G/ | %44
w: la la la la la _ la la|la la la la la _ la la|
w: ||
 !tenuto!F>.F .F.F (=c/B/).A/.G/ | !tenuto!F>.F .F.F (=c/B/).A/.G/ | (F6- | F2 G2 F2 | G2 F2 G2) | %49
w: la la la la la _ la la|la la la la la _ la la|a|||
w: |||||
 F6- | F2 x4 |] %51
w: ||
w: ||
V:6
!pp!"^léger" !tenuto!F,>F, .E,.D, (!tenuto!C,/!>(!B,,/.A,,/.G,,/)!>)! | F,,2 z (F,, B,,2) | %2
w: La la la la la _ la la|la la _|
w: ||
!pp! !tenuto!F,>F, .E,.D, ((!tenuto!C,/!>(!B,,/).A,,/.G,,/)!>)! | F,,2 z F,, B,,B,, | %4
w: la la la la la _ la la|la la la la|
w: ||
 z2 z F,, B,,B,, | z2 z F,, B,,B,, | z6 |!pp! z2 z!>(! (B,,/F,,/)!>)! .B,,B,,/B,,/ | %8
w: la la la|la la la||la _ la la la|
w: ||||
!pp! z2 z!>(! (B,,/F,,/)!>)! .B,,B,,/B,,/ |!pp! z2 z!>(! (B,,/F,,/)!>)! .B,,B,,/B,,/ | %10
w: la _ la la la|la _ la la la|
w: ||
!pp! z2 z!>(! (B,,/F,,/)!>)! .B,,B,,/B,,/ | z6 |!pp!"^doux et expressif" (A,,2 E,2 F,2 | %13
w: la _ la la la||la _ _|
w: |||
 G,2!>(! C,2!>)! E,2) |!pp! (A,,2 E,2 F,2 | G,2 C,2 E,2) |!>(! (A,,2 B,,2 C,2 | %17
w: _ _ _|la _ _|_ _ _|la _ _|
w: ||||
!p! E,2!>)!!>(! !^!!tenuto!F,4-)!>)! |!pp! F,>!>(!.F, .^E,.^D, (C,/B,,/).^A,,/.G,,/!>)! | %19
w: _ a|_ la la la la _ la la|
w: ||
 F,,2 z (F,, B,,2) | !tenuto!F,>.F, .=E,.=D, (C,/B,,/).=A,,/.G,,/ | .F,,2 z2 z2 | z6 | z6 | %24
w: la la _|la la la la la _ la la|la|||
w: |||||
!p! z2 z2!<(! !tenuto!E,.E,/.E,/!<)! | !tenuto!A,,2 z2 z2 |!mf! z2 z2!<(! !tenuto!E,.E,/.E,/!<)! | %27
w: la la la|la|la la la|
w: |||
 !tenuto!A,,2 z2 z2 | z .=D,/.D,/ .=G,,.D, !tenuto!C,2 | z .D,/.D,/ .=G,,!tenuto!D,- D,2- | %30
w: la|la la la la la|la la la la _|
w: |||
 D,2 z2 z2 ||[K:C]!pp! !tenuto!C,2-"^doux et expressif" C,.C,/.C,/ .G,,.G,, | %32
w: _|la _ _ _ _ _|
w: |la _ la la la la|
 !tenuto!C,2- C,.C,/.C,/ .G,,.G,, | !tenuto!D,2- D,.D,/.D,/ .B,,.B,,/.B,,/ | %34
w: |la _ _ _ _ _ _|
w: la _ la la la la|la _ la la la la la|
 !tenuto!A,,.A,,/.A,,/ D,D,/D,/ E,E,/E,/ | C,2- C,C,/C,/ G,,G,, | C,2- C,C,/C,/ G,,G,, | %37
w: |la _ _ _ _ _||
w: la la la la la la la la la|la _ la la la la|la _ la la la la|
 D,2- D,D,/D,/ B,,B,,/B,,/ | !tenuto!A,,.A,,/.A,,/ !tenuto!D,.D,/.D,/ !tenuto!F,.F,/.F,/ || %39
w: la _ _ _ _ _ _||
w: la _ la la la la la|la la la la la la la la la|
[K:A]!p!"^Unis." F, x5 | F,,2- F,, z z2 |!p!!>(! !tenuto!F,,.F,,/F,,/-!>)! F,,4 | %42
w: |la _|la la la _|
w: |||
!p! z2!>(! !tenuto!D,.D,/.D,/ !tenuto!A,,2!>)! |!p! z2!>(! !tenuto!A,,.A,,/.A,,/!>)! !tenuto!D,2 | %44
w: la la la la|la la la la|
w: ||
!p! z2!>(! !tenuto!D,.D,/.D,/ !tenuto!A,,2!>)! |!p! z2!>(! !tenuto!A,,.A,,/.A,,/!>)! !tenuto!D,2- | %46
w: la la la la|la la la la|
w: ||
"^più"!p! D,.D,/.D,/ !tenuto!D,.D,/.D,/ =C,2- | C,.=C,/.C,/ !tenuto!D,2 !tenuto!C,.C,/.C,/ | %48
w: _ la la la la la la|la _ _ _ _ _ _|
w: * * * * * * la|_ la la la la la la|
 !tenuto!D,2 !tenuto!=C,.C,/.C,/ !tenuto!D,2 |!ppp! !tenuto!F,.^C,/.C,/ C,4- | %50
w: |la _ _ _|
w: la la la la la|la la la la|
 !fermata!C,2 z2 z2 |] %51
w: _|
w: _|
V:7
 x6 | x6 | x6 | x6 | x6 | x6 | x6 | x6 | x6 | x6 | x6 | x6 | x6 | x6 | x6 | x6 | x6 | x6 | x6 | %19
w: |||||||||||||||||||
 x6 | x6 | x6 | x6 | x6 | x6 | x6 | x6 | x6 | x6 | x6 | x6 ||[K:C] (C,4 G,,2 | C,4 G,,2) | %33
w: ||||||||||||||
 (D,4 B,,2 | A,,2 D,2 E,2) | (C,4 G,,2 | C,4 G,,2) | (D,4 B,,2 | A,,2 D,2 F,2) || %39
w: ||||||
[K:A] F,>.F, .E,D, (C,/B,,/)!>(!A,,/G,,/ | x2!>)! x4 | x6 | x6 | x6 | x6 | x6 | x6 | F,,6- | F,,6 | %49
w: la la la la la _ la la||||||||||
 F,,6- | F,,2 x4 |] %51
w: ||
V:8
 x6 | x6 | x6 | x6 | x6 | x6 | x6 | x6 | x6 | x6 | x6 | x6 | x6 | x6 | x6 | x6 | x6 | x6 | x6 | %19
w: |||||||||||||||||||
 x6 | x6 | x6 | x6 | x6 | x6 | x6 | x6 | x6 | x6 | x6 | x6 ||[K:C] x6 | x6 | x6 | x6 | x6 | x6 | %37
w: ||||||||||||||||||
 x6 | x6 ||[K:A] x6 | x6 | x6 | x6 | x6 | x6 | x6 | x4 (=C,/B,,/).A,,/.G,,/ | x6 | x6 | x6 | x6 |] %51
w: |||||||||* * la la|||||

